X: 33
T: MEDLEY: St. Patrick's An Dro Set
T: St. Patrick's An Dro [An Dro] / An Dro de la Saint-Patrick
C: C: Trad.; S: Various
C: Set Leaders: Vova, Andrey, Tania, Oliushka
Z: Anton Zille ed., Oleg Naumov arr.; Sergei Ejov / bravesentry at The Session
N: https://thesession.org/members/26966/sets/96722
R: An Dro
M: 4/4
L: 1/8
Q: 1/2=100
K: Emin
|:"D"EFGF "Em"E2 B2|G2 E2 "D (G)"F2 B2|ABAG "Am"F2 EF|G2 EG "D"F4|
"D"EFGF "Em"E2 B2|G2 E2 "G"F2 B2|ABAG "Am"F2 EF|"D"GEFD "Em"E4:||
|:"D"EFGA "Em"B2 BB|"D"A2 d2 "Em (G)"B2 G2|EFGB "Am"A3B|ABAG "D"F2 ED|
"D"EFGA "Em"B2 BB|"D"A2 d2 "G"B2 G2|EFGB "Am"A3F|"Bm"GEFD "Em"E4:||
T: Wren [An Dro]
K: Emin
|:"Em"E2 B2 B2AB|"Am"c3B AGFG|"D"A2 F2 B2 AG|"Bm"FE F2 G2 F2|
"Em"E2 B2 B2 AB|"Am"c3B AGFG|"D"A2 F2 B2 AG|"Bm"FEFG E3D:||
|:"Em"E2 E2 F2 GF|"C"E2 E2 F3G|"D"A2 F2 B2 AG|"Bm"FE F2 G2 F2|
"Em"E2 E2 F2 GF|"C"E2 E2 F2 G2|"D"A2 F2 B2 AG|"D"FEFG E3D:||

